assets/img/icons_pokemon/ground.svg

<svg width="256" height="256" viewBox="0 0 256 256" fill="none" xmlns="http://www.w3.org/2000/svg">
<g clip-path="url(#clip0_57_749)">
<path d="M128 256C198.692 256 256 198.692 256 128C256 57.3075 198.692 0 128 0C57.3075 0 0 57.3075 0 128C0 198.692 57.3075 256 128 256Z" fill="#A4733C"/>
<path d="M126.23 184.84C123.71 184.07 119.83 183.18 116.17 181.72C99.2398 174.95 82.3698 168.04 65.4898 161.13C63.9698 160.51 62.5498 159.59 61.1198 158.76C53.6998 154.46 53.4198 149.55 60.9198 145.9C81.4998 135.89 102.86 127.78 124.53 120.47C127.19 119.57 129.68 119.87 132.3 120.76C153.33 127.9 174.03 135.84 194.08 145.41C194.98 145.84 195.99 146.09 196.79 146.64C201.6 149.99 201.77 154.76 196.71 157.76C192.17 160.45 187.19 162.42 182.31 164.49C166.15 171.35 149.97 178.19 133.31 183.79C131.4 184.43 129.59 185.16 126.22 184.83L126.23 184.84Z" fill="white"/>
<path d="M127.56 209.93C123.36 209.93 111.44 205.77 103.73 202.92C89.1099 197.51 74.6999 191.44 60.4999 184.96C59.8299 184.66 56.9399 182.97 55.3099 182.02C50.2699 179.12 49.8999 178.28 52.7399 172.77C54.6399 169.09 55.4399 169.46 60.4899 171.78C76.4999 179.1 92.8699 185.45 109.2 191.93C125.53 198.41 130.29 198.8 146.72 191.97C162.63 185.36 178.4 178.43 194.52 172.24C199.39 170.37 201.4 168.38 203.66 173.57C205.47 177.72 207.49 179.1 199.9 182.41C183.16 189.72 166.83 197.86 149.54 203.77C142.34 206.23 132.31 209.92 127.56 209.92V209.93Z" fill="white"/>
<path d="M93.59 71.1901C93.59 80.6835 88.89 85.4268 79.49 85.4201C78.16 85.4201 76.84 85.4401 75.51 85.4001C66.73 85.1201 66.25 84.6201 65.99 75.4301C65.65 63.4035 71.5433 57.5268 83.67 57.8001C93.11 58.0201 93.43 58.3401 93.59 68.2001C93.61 69.1901 93.59 70.1901 93.59 71.1801V71.1901Z" fill="white"/>
<path d="M185.3 87.7201C185.16 97.8901 184.96 98.0601 173.31 97.9701C163.31 97.8901 163.07 97.6001 163.17 85.9101C163.26 75.7301 163.52 75.5001 175.12 75.6701C185.26 75.8201 185.46 76.0501 185.3 87.7201Z" fill="white"/>
<path d="M119.38 99.5402C119.42 107.63 118.34 108.71 110.25 108.72C102.06 108.72 100.79 107.51 100.83 99.7302C100.87 92.1302 101.82 91.3202 110.61 91.3702C118.77 91.4202 119.35 91.9602 119.39 99.5302L119.38 99.5402Z" fill="white"/>
</g>
<defs>
<clipPath id="clip0_57_749">
<rect width="256" height="256" fill="white"/>
</clipPath>
</defs>
</svg>

<?xml version="1.0" encoding="UTF-8"?>
<svg id="Layer_1" data-name="Layer 1" xmlns="http://www.w3.org/2000/svg" viewBox="0 0 256 256">
  <defs>
    <style>
      .cls-1 {
        fill: #fff;
      }

      .cls-2 {
        fill: #a4733c;
      }
    </style>
  </defs>
  <circle class="cls-2" cx="128" cy="128" r="128"/>
  <path class="cls-1" d="M126.23,184.84c-2.52-.77-6.4-1.66-10.06-3.12-16.93-6.77-33.8-13.68-50.68-20.59-1.52-.62-2.94-1.54-4.37-2.37-7.42-4.3-7.7-9.21-.2-12.86,20.58-10.01,41.94-18.12,63.61-25.43,2.66-.9,5.15-.6,7.77,.29,21.03,7.14,41.73,15.08,61.78,24.65,.9,.43,1.91,.68,2.71,1.23,4.81,3.35,4.98,8.12-.08,11.12-4.54,2.69-9.52,4.66-14.4,6.73-16.16,6.86-32.34,13.7-49,19.3-1.91,.64-3.72,1.37-7.09,1.04Z"/>
  <path class="cls-1" d="M127.56,209.93c-4.2,0-16.12-4.16-23.83-7.01-14.62-5.41-29.03-11.48-43.23-17.96-.67-.3-3.56-1.99-5.19-2.94-5.04-2.9-5.41-3.74-2.57-9.25,1.9-3.68,2.7-3.31,7.75-.99,16.01,7.32,32.38,13.67,48.71,20.15s21.09,6.87,37.52,.04c15.91-6.61,31.68-13.54,47.8-19.73,4.87-1.87,6.88-3.86,9.14,1.33,1.81,4.15,3.83,5.53-3.76,8.84-16.74,7.31-33.07,15.45-50.36,21.36-7.2,2.46-17.23,6.15-21.98,6.15Z"/>
  <path class="cls-1" d="M93.59,71.19q0,14.24-14.1,14.23c-1.33,0-2.65,.02-3.98-.02-8.78-.28-9.26-.78-9.52-9.97q-.51-18.04,17.68-17.63c9.44,.22,9.76,.54,9.92,10.4,.02,.99,0,1.99,0,2.98Z"/>
  <path class="cls-1" d="M185.3,87.72c-.14,10.17-.34,10.34-11.99,10.25-10-.08-10.24-.37-10.14-12.06,.09-10.18,.35-10.41,11.95-10.24,10.14,.15,10.34,.38,10.18,12.05Z"/>
  <path class="cls-1" d="M119.38,99.54c.04,8.09-1.04,9.17-9.13,9.18-8.19,0-9.46-1.21-9.42-8.99,.04-7.6,.99-8.41,9.78-8.36,8.16,.05,8.74,.59,8.78,8.16Z"/>
</svg>
